X:15
T:Resist Despair
C:Jenni Komarovsky
O:New Zealand
N:To be played after "Banish Misfortune"
L:1/8
M:6/8
Q:1/4=120
P:AA
R:Jig
K:G
P:A
d |: "G"dcB "D"AGF | "G"G2D DGB | "D"A2D DFc | "G"B2G DGB | dcB "D"AGF | "G"G2D DGB | "D"ADA cBA | [1 "G"G3- G2 d :| [2 "G"G3- G2D |
|: "G"B,2D G2D | "Am"C2E A2E | "D"DFA DFA | "G"GDC B,A,G, | B,2D G2D | "Am"C2E A2A | "D"AD[DA] [cD][BE][FA] | "G"[DG]2 [B,G] [G,G]3 :|]

